X:1
T:Canon per Violini e Basso
C:Johann Pachelbel
C:(1653-1706)
M:C
L:1/4
K:D
V:1
Z8|
f4| e4| d4| c4| B4| A4| B4| c4|
d4| c4| B4| A4| G4| F4| G4| E4|
D2F2| A2G2| F2D2| F2E2| D2B,2| D2A2| G2B2| A2G2|
F2D2| E2c2| d2f2| a2A2| B2G2| A2F2| D2d2| Td3c|
dcdD| CAEF| DdcB| cfab| gfeg| fedc| BAGF| EGFE|
DEFG| AEAG| FBAG| AGFE| DB,Bc| dcBA| GFEB| ABAG|
F2f2| e4| z2d2| f4| b4| a4| b4| c'4|
d'2d2| c4| z2B2| d4| d4-|d2d2| d2g2| e2a2|
af/g/ af/g/| a/A/B/c/ d/e/f/g/| fd/e/ fF/G/| A/B/A/G/ A/F/G/A/| GB/A/ GF/E/| F/E/D/E/ F/G/A/B/| GB/A/ Bc/d/| A/B/c/d/ e/f/g/a/|
fd/e/ fe/d/| e/c/d/e/ f/e/d/c/| dB/c/ dD/E/| F/G/F/E/ F/d/c/d/|Bd/c/ BA/G/| A/G/F/G/ A/B/c/d/| Bd/c/ dc/B/| c/d/e/d/ c/d/B/c/|
d2d2|c4|z2B2|d4|D4|D2D2|D2G2|A2E2|
F2f2| e4| z2d2| A4| B4| A4| B4| c4|
dcdD| CAEF| DdcB| cfab| gfeg| fedc| BAGF| EGFE|
DEFG| AEAG| FBAG| AGFE| DB,Bc| dcBA| GFEB| ABAG|
F2D2| E2c2| d2f2| a2A2| B2G2| A2F2| D2d2| c2E2|
D2F2| A2G2| F2D2| F2E2| D2B,2| D2A2| G2B2| A2c2|
d4| c4| B4| A4| G4| F4| G4| A4|
f4| e4| d4| c4| B4| A4| B4| c4|
V:2
Z16|
f4| e4| d4| c4| B4| A4| B4| c4|
d4| c4| B4| A4| G4| F4| G4| E4|
D2F2| A2G2| F2D2| F2E2| D2B,2| D2A2| G2B2| A2G2|
F2D2| E2c2| d2f2| a2A2| B2G2| A2F2| D2d2| Td3c|
dcdD| CAEF| DdcB| cfab| gfeg| fedc| BAGF| EGFE|
DEFG| AEAG| FBAG| AGFE| DB,Bc| dcBA| GFEB| ABAG|
F2f2| e4| z2d2| f4| b4| a4| b4| c'4|
d'2d2| c4| z2B2| d4| d4-|d2d2| d2g2| e2a2|
af/g/ af/g/| a/A/B/c/ d/e/f/g/| fd/e/ fF/G/| A/B/A/G/ A/F/G/A/| GB/A/ GF/E/| F/E/D/E/ F/G/A/B/| GB/A/ Bc/d/| A/B/c/d/ e/f/g/a/|
fd/e/ fe/d/| e/c/d/e/ f/e/d/c/| dB/c/ dD/E/| F/G/F/E/ F/d/c/d/|Bd/c/ BA/G/| A/G/F/G/ A/B/c/d/| Bd/c/ dc/B/| c/d/e/d/ c/d/B/c/|
d2d2|c4|z2B2|d4|D4|D2D2|D2G2|A2E2|
F2f2| e4| z2d2| A4| B4| A4| B4| c4|
dcdD| CAEF| DdcB| cfab| gfeg| fedc| BAGF| EGFE|
DEFG| AEAG| FBAG| AGFE| DB,Bc| dcBA| GFEB| ABAG|
F2D2| E2c2| d2f2| a2A2| B2G2| A2F2| D2d2| c2E2|
D2F2| A2G2| F2D2| F2E2| D2B,2| D2A2| G2B2| A2c2|
d4| c4| B4| A4| G4| F4| G4| A4|
f4| e4| d4| c4| B4| A4| B4| c4|
V:3
Z24|
f4| e4| d4| c4| B4| A4| B4| c4|
d4| c4| B4| A4| G4| F4| G4| E4|
D2F2| A2G2| F2D2| F2E2| D2B,2| D2A2| G2B2| A2G2|
F2D2| E2c2| d2f2| a2A2| B2G2| A2F2| D2d2| Td3c|
dcdD| CAEF| DdcB| cfab| gfeg| fedc| BAGF| EGFE|
DEFG| AEAG| FBAG| AGFE| DB,Bc| dcBA| GFEB| ABAG|
F2f2| e4| z2d2| f4| b4| a4| b4| c'4|
d'2d2| c4| z2B2| d4| d4-|d2d2| d2g2| e2a2|
af/g/ af/g/| a/A/B/c/ d/e/f/g/| fd/e/ fF/G/| A/B/A/G/ A/F/G/A/| GB/A/ GF/E/| F/E/D/E/ F/G/A/B/| GB/A/ Bc/d/| A/B/c/d/ e/f/g/a/|
fd/e/ fe/d/| e/c/d/e/ f/e/d/c/| dB/c/ dD/E/| F/G/F/E/ F/d/c/d/|Bd/c/ BA/G/| A/G/F/G/ A/B/c/d/| Bd/c/ dc/B/| c/d/e/d/ c/d/B/c/|
d2d2|c4|z2B2|d4|D4|D2D2|D2G2|A2E2|
F2f2| e4| z2d2| A4| B4| A4| B4| c4|
dcdD| CAEF| DdcB| cfab| gfeg| fedc| BAGF| EGFE|
DEFG| AEAG| FBAG| AGFE| DB,Bc| dcBA| GFEB| ABAG|
F2D2| E2c2| d2f2| a2A2| B2G2| A2F2| D2d2| c2E2|
D2F2| A2G2| F2D2| F2E2| D2B,2| D2A2| G2B2| A2c2|
d4| c4| B4| A4| G4| F4| G4| A4|
f4| e4| d4| c4| B4| A4| B4| c4|
V:2
Z8| 
V:1
Z16| 
V:4
D,4|A,,4| B,,4| F,,4| G,,4| D,,4| G,,4| A,,4|
D,4|A,,4| B,,4| F,,4| G,,4| D,,4| G,,4| A,,4|
D,4|A,,4| B,,4| F,,4| G,,4| D,,4| G,,4| A,,4|
D,4|A,,4| B,,4| F,,4| G,,4| D,,4| G,,4| A,,4|
D,4|A,,4| B,,4| F,,4| G,,4| D,,4| G,,4| A,,4|
D,4|A,,4| B,,4| F,,4| G,,4| D,,4| G,,4| A,,4|
D,4|A,,4| B,,4| F,,4| G,,4| D,,4| G,,4| A,,4|
D,4|A,,4| B,,4| F,,4| G,,4| D,,4| G,,4| A,,4|
D,4|A,,4| B,,4| F,,4| G,,4| D,,4| G,,4| A,,4|
D,4|A,,4| B,,4| F,,4| G,,4| D,,4| G,,4| A,,4|
D,4|A,,4| B,,4| F,,4| G,,4| D,,4| G,,4| A,,4|
D,4|A,,4| B,,4| F,,4| G,,4| D,,4| G,,4| A,,4|
D,4|A,,4| B,,4| F,,4| G,,4| D,,4| G,,4| A,,4|
D,4|A,,4| B,,4| F,,4| G,,4| D,,4| G,,4| A,,4|
D,4|A,,4| B,,4| F,,4| G,,4| D,,4| G,,4| A,,4|
D,4|A,,4| B,,4| F,,4| G,,4| D,,4| G,,4| A,,4|
D,4|A,,4| B,,4| F,,4| G,,4| D,,4| G,,4| A,,4|
D,4|A,,4| B,,4| F,,4| G,,4| D,,4| G,,4| A,,4|
D,4|A,,4| B,,4| F,,4| G,,4| D,,4| G,,4| A,,4|
D,4|A,,4| B,,4| F,,4| G,,4| D,,4| G,,4| A,,4|
D,4|A,,4| B,,4| F,,4| G,,4| D,,4| G,,4| A,,4|
